X:43
T:O will ye marry my daughter Janet
Z:Jack Campin - http://www.campin.me.uk
S:Blaikie MS (NLS MS.1578) p15
N:Blaikie #42
M:2/4
L:1/8
V:1 midi program 1 74
V:2 midi program 1 46 bass middle = d transpose -24
Q:1/4=68
K:D Minor
[V:1] A|df`ed|cd`AA|dd`ed|c2 zA|df ed/d/|
[V:2] z|D2 d2|D2 d2|F2 f2|F2 f2|d2 ef   |
%
[V:1] cd`AG|FD`FA|d3`E|FD`FA|D3|]
[V:2] gf fe|d2 d2|d2z2|f2 dA|d3|]
W:Transcription (c) Jack Campin 2009, no mirroring or republication without permission

